X: 03079
T: ROGER'S JIG
C: Bob McQuillen 19 Apr 77
B: Bob's Note Book 03 #79
R: jig
%D:1977
Z: 2020 John Chambers <jc:trillian.mit.edu>
M: 6/8
L: 1/8
K: A
E \
| AcB AGA | B2B dcB | AcB Ace | f2f efg |\
| aba gfe | fdf ecA | def efg | aAA A2 :|
|: c \
| efe ecB | ABc BGE | efe agf | edc c2B |\
| AGA BGE | cBc def | efg aec | B3  A2 :|
%%begintext align
%% On this, the 202^nd anniversary
%% of Paul Revere's Ride, I have
%% written this special tune for a
%% real special guy, Roger Whynot.
%% Love you, old friend.
%%endtext

%%sep 1 1 500

%%sep 1 1 500

